icon-svg/plutotv.svg

<svg xmlns="http://www.w3.org/2000/svg" fill="#44739e" viewBox="0 0 24 24"><path d="M20.309 9.359A1.191 1.191 0 1 0 21.5 10.55a1.191 1.191 0 0 0-1.191-1.191m.46 1.7a.045.045 0 0 1-.042.028h-.16a.046.046 0 0 1-.042-.028l-.284-.706a.045.045 0 0 1-.033.015H20v.674a.045.045 0 0 1-.045.045h-.144a.045.045 0 0 1-.044-.045v-.674h-.213a.045.045 0 0 1-.045-.045v-.131a.045.045 0 0 1 .045-.045h.837a.044.044 0 0 1 .041.028l.22.534.22-.534a.045.045 0 0 1 .042-.028h.16a.045.045 0 0 1 .042.061zm-3.661-.668a1.985 1.985 0 0 0-1.978 1.989 1.981 1.981 0 0 0 3.961 0 1.988 1.988 0 0 0-1.983-1.989m0 3.184a1.2 1.2 0 0 1 0-2.4 1.219 1.219 0 0 1 1.2 1.206 1.2 1.2 0 0 1-1.2 1.194m-2.236-3.186h-2.427a.146.146 0 0 0-.146.146v.456a.146.146 0 0 0 .146.146h.809v3.075a.15.15 0 0 0 .146.146h.517a.15.15 0 0 0 .146-.146v-3.075h.809a.147.147 0 0 0 .146-.146v-.456a.147.147 0 0 0-.146-.146m-3.319 0h-.527a.146.146 0 0 0-.146.146v2.222a.768.768 0 1 1-1.535-.006v-2.216a.147.147 0 0 0-.146-.146h-.528a.15.15 0 0 0-.146.146v2.255a1.587 1.587 0 0 0 3.174 0v-2.255a.15.15 0 0 0-.146-.146m-3.62 3.221H6.557v-3.075a.15.15 0 0 0-.146-.146H5.9a.147.147 0 0 0-.146.146v3.677a.147.147 0 0 0 .146.146h2.033a.147.147 0 0 0 .146-.146v-.456a.147.147 0 0 0-.146-.146m-3.982-3.221H2.646a.147.147 0 0 0-.146.146v3.677a.147.147 0 0 0 .146.146h.511a.15.15 0 0 0 .146-.146v-1.265h.654a1.279 1.279 0 1 0-.006-2.558m-.044 1.8H3.3v-1.035h.6a.515.515 0 0 1 .531.5.535.535 0 0 1-.524.535"/></svg>

<?xml version="1.0" encoding="UTF-8"?>
<svg width="24px" fill="#44739e" height="24px" viewBox="0 0 24 24" version="1.1" xmlns="http://www.w3.org/2000/svg" xmlns:xlink="http://www.w3.org/1999/xlink">
            <path d="M 20.309,9.359 A 1.191,1.191 0 1 0 21.5,10.55 1.191,1.191 0 0 0 20.309,9.359 Z m 0.46,1.7 a 0.045,0.045 0 0 1 -0.042,0.028 h -0.16 a 0.046,0.046 0 0 1 -0.042,-0.028 l -0.284,-0.706 a 0.045,0.045 0 0 1 -0.033,0.015 H 20 v 0.674 a 0.045,0.045 0 0 1 -0.045,0.045 h -0.144 a 0.045,0.045 0 0 1 -0.044,-0.045 v -0.674 h -0.213 a 0.045,0.045 0 0 1 -0.045,-0.045 v -0.131 a 0.045,0.045 0 0 1 0.045,-0.045 h 0.837 a 0.044,0.044 0 0 1 0.041,0.028 l 0.22,0.534 0.22,-0.534 a 0.045,0.045 0 0 1 0.042,-0.028 h 0.16 a 0.045,0.045 0 0 1 0.042,0.061 z m -3.661,-0.668 a 1.985,1.985 0 0 0 -1.978,1.989 1.981,1.981 0 0 0 3.961,0 1.988,1.988 0 0 0 -1.983,-1.989 z m 0,3.184 a 1.2,1.2 0 0 1 0,-2.4 1.219,1.219 0 0 1 1.2,1.206 1.2,1.2 0 0 1 -1.2,1.194 z m -2.236,-3.186 h -2.427 a 0.146,0.146 0 0 0 -0.146,0.146 v 0.456 a 0.146,0.146 0 0 0 0.146,0.146 h 0.809 v 3.075 a 0.15,0.15 0 0 0 0.146,0.146 h 0.517 a 0.15,0.15 0 0 0 0.146,-0.146 v -3.075 h 0.809 a 0.147,0.147 0 0 0 0.146,-0.146 v -0.456 a 0.147,0.147 0 0 0 -0.146,-0.146 z m -3.319,0 h -0.527 a 0.146,0.146 0 0 0 -0.146,0.146 v 2.222 A 0.768,0.768 0 1 1 9.345,12.751 V 10.535 A 0.147,0.147 0 0 0 9.199,10.389 H 8.671 a 0.15,0.15 0 0 0 -0.146,0.146 v 2.255 a 1.587,1.587 0 0 0 3.174,0 V 10.535 A 0.15,0.15 0 0 0 11.553,10.389 Z M 7.933,13.61 H 6.557 V 10.535 A 0.15,0.15 0 0 0 6.411,10.389 H 5.9 a 0.147,0.147 0 0 0 -0.146,0.146 v 3.677 A 0.147,0.147 0 0 0 5.9,14.358 H 7.933 A 0.147,0.147 0 0 0 8.079,14.212 V 13.756 A 0.147,0.147 0 0 0 7.933,13.61 Z M 3.951,10.389 H 2.646 A 0.147,0.147 0 0 0 2.5,10.535 v 3.677 a 0.147,0.147 0 0 0 0.146,0.146 H 3.157 A 0.15,0.15 0 0 0 3.303,14.212 V 12.947 H 3.957 A 1.2790035,1.2790035 0 1 0 3.951,10.389 Z m -0.044,1.8 H 3.3 v -1.035 h 0.6 a 0.515,0.515 0 0 1 0.531,0.5 0.535,0.535 0 0 1 -0.524,0.535 z"/>

</svg>
